X:494
T: Des Mdchens Lebensstufen (199), S. 434
N: T0382
O: Luxemburg
S: Singendes Volk, Esch-Alzette, 1937 posth.]
N: Blascheid
R: Hochzeits-, Ehestandslied]
M: 3/4
L: 1/8
K: C
EF | AGG2EF | AGG2
cc | B3AGE | AGG2
EF | AGG2EF | AGG2
cc | B3AGE | AGG2
EF | G2e2dc | c2B2
DE | F2F2FA | A2A2
EF | G2d2AB | c2z2

